assets/stickers/emoticons/stickers/imgly_sticker_emoticons_harry_potter.svg

<svg height="62" viewBox="0 0 64 62" width="64" xmlns="http://www.w3.org/2000/svg"><g fill="none"><g transform="translate(1 3)"><path d="m61.3 35.4c0 13-11.9 23.5-30.3 23.5s-30.3-10.5-30.3-23.5 11.9-32.5 30.3-32.5 30.3 19.5 30.3 32.5z" fill="#f7910b"/><path d="m61.3 35.4c0 13-11.9 19.5-30.3 19.5s-30.3-6.5-30.3-19.5 11.9-34.5 30.3-34.5 30.3 21.5 30.3 34.5z" fill="#f7910b"/><path d="m31 .9c18.4 0 30.3 21.5 30.3 34.5s-11.9 19.5-30.3 19.5" fill="#f9a908"/><path d="m61.3 35.4c0 13-11.9 19.5-30.3 19.5s-30.3-6.5-30.3-19.5 11.9-32.5 30.3-32.5 30.3 19.5 30.3 32.5z" fill="#f9a908"/><path d="m.7 35.4c0-13 11.9-32.5 30.3-32.5" fill="#f9c55d"/><path d="m31 2.9c18.4 0 30.3 19.5 30.3 32.5s-11.9 23.5-30.3 23.5" fill="#f7910b"/><path d="m31 2.9c18.4 0 30.3 19.5 30.3 32.5" fill="#ea7103"/><g transform="translate(11 31)"><path d="m15.8 2.2c0 1.2-3.5.7-7.8.7s-7.8.6-7.8-.7c0-1.2 3.5-2.2 7.8-2.2s7.8 1 7.8 2.2z" fill="#f9c55d"/><path d="m39.8 2.2c0 1.2-3.5.7-7.8.7s-7.8.6-7.8-.7c0-1.2 3.5-2.2 7.8-2.2s7.8 1 7.8 2.2z" fill="#f9a908"/></g><ellipse cx="9.3" cy="32.4" fill="#f7910b" rx="1" ry="1"/><ellipse cx="4.8" cy="34.4" fill="#f7910b" rx="1.1" ry="1.1"/><circle cx="7.8" cy="30.4" fill="#f7910b" r="1"/><circle cx="12.4" cy="32.2" fill="#f7910b" r="1"/><circle cx="51.6" cy="32.7" fill="#f9a908" r="1"/><circle cx="54.1" cy="34.1" fill="#f9a908" r="1"/><circle cx="48.8" cy="25.3" fill="#f9a908" r="1"/><circle cx="48.3" cy="36.9" fill="#f9a908" r="1.3"/><circle cx="55.5" cy="37" fill="#f9a908" r="1"/><circle cx="8.3" cy="36.4" fill="#f7910b" r="1"/><circle cx="9.1" cy="28" fill="#f7910b" r="1"/><g fill="#f9a908"><ellipse cx="3.8" cy="14.2" rx="1.1" ry="1.1"/><ellipse cx="7" cy="10.7" rx="1" ry="1"/><circle cx="58.2" cy="16.6" r="1"/><ellipse cx="57.4" cy="13.7" rx="1" ry="1"/><path d="m60.5 14.2c0 .3-.2.5-.5.5s-.5-.2-.5-.5.2-.5.5-.5c.2 0 .5.3.5.5z"/><ellipse cx="5" cy="17.2" rx="1" ry="1"/></g></g><g transform="translate(9 28)"><ellipse cx="11.7" cy="11.7" fill="#fff" rx="9.3" ry="9.3"/><path d="m11.7 22.7c-6.1 0-11-4.9-11-11s4.9-11 11-11 11 4.9 11 11-5 11-11 11zm0-18.7c-4.2 0-7.7 3.4-7.7 7.7s3.4 7.7 7.7 7.7c4.2 0 7.7-3.4 7.7-7.7s-3.5-7.7-7.7-7.7z" fill="#756a49"/></g><g transform="translate(32 28)"><path d="m20.7 11.7c0 5.2-4.2 9.3-9.3 9.3-5.2 0-9.3-4.2-9.3-9.3s4.2-9.3 9.3-9.3 9.3 4.2 9.3 9.3z" fill="#fff"/><path d="m11.3 22.7c-6.1 0-11-4.9-11-11s4.9-11 11-11 11 4.9 11 11-4.9 11-11 11zm0-18.7c-4.2 0-7.7 3.4-7.7 7.7s3.4 7.7 7.7 7.7c4.2 0 7.7-3.4 7.7-7.7s-3.4-7.7-7.7-7.7z" fill="#756a49"/></g><g transform="translate(17 35)"><ellipse cx="3.6" cy="5.2" fill="#cecdcc" rx="3.5" ry="3.5"/><ellipse cx="26.4" cy="5.2" fill="#cecdcc" rx="3.5" ry="3.5"/><ellipse cx="3.6" cy="4.2" fill="#1e4784" rx="3.5" ry="3.5"/><path d="m3.6.7c1.9 0 3.5 1.6 3.5 3.5s-1.6 3.5-3.5 3.5" fill="#00233f"/><ellipse cx="26.4" cy="4.2" fill="#1e4784" rx="3.5" ry="3.5"/><path d="m26.4.7c1.9 0 3.5 1.6 3.5 3.5s-1.6 3.5-3.5 3.5" fill="#00233f"/></g><g transform="translate(0 36)"><path d="m2 1.5h9" fill="#fff"/><path d="m11 3h-9c-.8 0-1.5-.7-1.5-1.5s.7-1.5 1.5-1.5h9c.8 0 1.5.7 1.5 1.5s-.7 1.5-1.5 1.5z" fill="#756a49"/></g><g transform="translate(51 36)"><path d="m2 1.5h9" fill="#fff"/><path d="m11 3h-9c-.8 0-1.5-.7-1.5-1.5s.7-1.5 1.5-1.5h9c.8 0 1.5.7 1.5 1.5s-.7 1.5-1.5 1.5z" fill="#756a49"/></g><g fill="#109da0" transform="translate(17 16)"><path d="m7 3.1c0 .6-1.5.2-3.2 0-1.8-.2-3.2 0-3.2-.6s.8-2.3 2.6-2.1c1.7.2 3.9 2.1 3.8 2.7z"/><path d="m23 3.9c0 .6 1.5.2 3.2 0 1.8-.2 3.2 0 3.2-.6-.1-.6-.8-2.3-2.6-2.1-1.7.2-3.9 2.2-3.8 2.7z"/></g><g transform="translate(12)"><path d="m30.8 6.2s-1.4 12.3-23 14.4l.6-3s-6.8 3.4-6.9 8c0 0-2-13.4 1.3-19.2 4.4-7.6 12.7-7.4 23.5-4.2z" fill="#641e82"/><path d="m26.3 2.2 4.5 3.9s-1.4 12.3-23 14.4l.6-3s-6.8 3.4-6.9 8c0 0-2-13.4 1.3-19.2" fill="#00233f"/><path d="m26.8 3.7s3.6 8.5 11.8 15.1c0 0 3.7-16.6-9.1-16.8l-4.8.1z" fill="#00233f"/><path d="m29.5 2-4.8.1 2.1 1.6s3.6 8.5 11.8 15.1" fill="#641e82"/></g><path d="m21.2 21.8-3.4 3.2h2.8l-3.7 4h7.6l3.8-4h-3.1l3.4-3.4z" fill="#fcf492"/><path d="m12.5 47.1-2.4 5.3 4.2-3.8z" fill="#fcf492"/><g transform="translate(23 50)"><path d="m16.4 3.6c0 2.6-3.3 8.1-7.4 8.1s-7.4-5.5-7.4-8.1" fill="#f7910b"/><path d="m9 5.1c-3.5 0-6.5-.8-7.9-2.2-.4-.4-.4-1.1 0-1.6s1.1-.4 1.6 0c1 1 3.5 1.6 6.3 1.6s5.4-.6 6.3-1.6c.4-.4 1.1-.4 1.6 0 .4.4.4 1.1 0 1.6-1.4 1.4-4.4 2.2-7.9 2.2z" fill="#02243e"/></g></g></svg>

<?xml version="1.0" encoding="UTF-8"?>
<svg width="64px" height="62px" viewBox="0 0 64 62" version="1.1" xmlns="http://www.w3.org/2000/svg" xmlns:xlink="http://www.w3.org/1999/xlink">
    <!-- Generator: Sketch 43.1 (39012) - http://www.bohemiancoding.com/sketch -->
    <title>imgly_sticker_emoticons_harry_potter</title>
    <desc>Created with Sketch.</desc>
    <defs></defs>
    <g id="Page-1" stroke="none" stroke-width="1" fill="none" fill-rule="evenodd">
        <g id="harry_potter" fill-rule="nonzero">
            <g id="Group" transform="translate(0.000000, 3.000000)">
                <g transform="translate(1.000000, 0.000000)">
                    <g>
                        <path d="M61.3,35.4 C61.3,48.4 49.4,58.9 31,58.9 C12.6,58.9 0.7,48.4 0.7,35.4 C0.7,22.4 12.6,2.9 31,2.9 C49.4,2.9 61.3,22.4 61.3,35.4 Z" id="Shape" fill="#F7910B"></path>
                        <path d="M61.3,35.4 C61.3,48.4 49.4,54.9 31,54.9 C12.6,54.9 0.7,48.4 0.7,35.4 C0.7,22.4 12.6,0.9 31,0.9 C49.4,0.9 61.3,22.4 61.3,35.4 Z" id="Shape" fill="#F7910B"></path>
                        <path d="M31,0.9 C49.4,0.9 61.3,22.4 61.3,35.4 C61.3,48.4 49.4,54.9 31,54.9" id="Shape" fill="#F9A908"></path>
                        <path d="M61.3,35.4 C61.3,48.4 49.4,54.9 31,54.9 C12.6,54.9 0.7,48.4 0.7,35.4 C0.7,22.4 12.6,2.9 31,2.9 C49.4,2.9 61.3,22.4 61.3,35.4 Z" id="Shape" fill="#F9A908"></path>
                        <path d="M0.7,35.4 C0.7,22.4 12.6,2.9 31,2.9" id="Shape" fill="#F9C55D"></path>
                        <path d="M31,2.9 C49.4,2.9 61.3,22.4 61.3,35.4 C61.3,48.4 49.4,58.9 31,58.9" id="Shape" fill="#F7910B"></path>
                        <path d="M31,2.9 C49.4,2.9 61.3,22.4 61.3,35.4" id="Shape" fill="#EA7103"></path>
                        <g transform="translate(11.000000, 31.000000)" id="Shape">
                            <path d="M15.8,2.2 C15.8,3.4 12.3,2.9 8,2.9 C3.7,2.9 0.2,3.5 0.2,2.2 C0.2,1 3.7,0 8,0 C12.3,0 15.8,1 15.8,2.2 Z" fill="#F9C55D"></path>
                            <path d="M39.8,2.2 C39.8,3.4 36.3,2.9 32,2.9 C27.7,2.9 24.2,3.5 24.2,2.2 C24.2,1 27.7,0 32,0 C36.3,0 39.8,1 39.8,2.2 Z" fill="#F9A908"></path>
                        </g>
                        <ellipse id="Oval" fill="#F7910B" cx="9.3" cy="32.4" rx="1" ry="1"></ellipse>
                        <ellipse id="Oval" fill="#F7910B" cx="4.8" cy="34.4" rx="1.1" ry="1.1"></ellipse>
                        <circle id="Oval" fill="#F7910B" cx="7.8" cy="30.4" r="1"></circle>
                        <circle id="Oval" fill="#F7910B" cx="12.4" cy="32.2" r="1"></circle>
                        <circle id="Oval" fill="#F9A908" cx="51.6" cy="32.7" r="1"></circle>
                        <circle id="Oval" fill="#F9A908" cx="54.1" cy="34.1" r="1"></circle>
                        <circle id="Oval" fill="#F9A908" cx="48.8" cy="25.3" r="1"></circle>
                        <circle id="Oval" fill="#F9A908" cx="48.3" cy="36.9" r="1.3"></circle>
                        <circle id="Oval" fill="#F9A908" cx="55.5" cy="37" r="1"></circle>
                        <circle id="Oval" fill="#F7910B" cx="8.3" cy="36.4" r="1"></circle>
                        <circle id="Oval" fill="#F7910B" cx="9.1" cy="28" r="1"></circle>
                        <ellipse id="Oval" fill="#F9A908" cx="3.8" cy="14.2" rx="1.1" ry="1.1"></ellipse>
                        <ellipse id="Oval" fill="#F9A908" cx="7" cy="10.7" rx="1" ry="1"></ellipse>
                        <circle id="Oval" fill="#F9A908" cx="58.2" cy="16.6" r="1"></circle>
                        <ellipse id="Oval" fill="#F9A908" cx="57.4" cy="13.7" rx="1" ry="1"></ellipse>
                        <path d="M60.5,14.2 C60.5,14.5 60.3,14.7 60,14.7 C59.7,14.7 59.5,14.5 59.5,14.2 C59.5,13.9 59.7,13.7 60,13.7 C60.2,13.7 60.5,14 60.5,14.2 Z" id="Shape" fill="#F9A908"></path>
                        <ellipse id="Oval" fill="#F9A908" cx="5" cy="17.2" rx="1" ry="1"></ellipse>
                    </g>
                    <g transform="translate(8.000000, 25.000000)">
                        <g>
                            <g>
                                <ellipse id="Oval" fill="#FFFFFF" cx="11.7" cy="11.7" rx="9.3" ry="9.3"></ellipse>
                                <path d="M11.7,22.7 C5.6,22.7 0.7,17.8 0.7,11.7 C0.7,5.6 5.6,0.7 11.7,0.7 C17.8,0.7 22.7,5.6 22.7,11.7 C22.7,17.8 17.7,22.7 11.7,22.7 Z M11.7,4 C7.5,4 4,7.4 4,11.7 C4,16 7.4,19.4 11.7,19.4 C15.9,19.4 19.4,16 19.4,11.7 C19.4,7.4 15.9,4 11.7,4 Z" id="Shape" fill="#756A49"></path>
                            </g>
                            <g transform="translate(23.000000, 0.000000)" id="Shape">
                                <path d="M20.7,11.7 C20.7,16.9 16.5,21 11.4,21 C6.2,21 2.1,16.8 2.1,11.7 C2.1,6.6 6.3,2.4 11.4,2.4 C16.5,2.4 20.7,6.6 20.7,11.7 Z" fill="#FFFFFF"></path>
                                <path d="M11.3,22.7 C5.2,22.7 0.3,17.8 0.3,11.7 C0.3,5.6 5.2,0.7 11.3,0.7 C17.4,0.7 22.3,5.6 22.3,11.7 C22.3,17.8 17.4,22.7 11.3,22.7 Z M11.3,4 C7.1,4 3.6,7.4 3.6,11.7 C3.6,16 7,19.4 11.3,19.4 C15.5,19.4 19,16 19,11.7 C19,7.4 15.6,4 11.3,4 Z" fill="#756A49"></path>
                            </g>
                        </g>
                        <g transform="translate(8.000000, 7.000000)">
                            <ellipse id="Oval" fill="#CECDCC" cx="3.6" cy="5.2" rx="3.5" ry="3.5"></ellipse>
                            <ellipse id="Oval" fill="#CECDCC" cx="26.4" cy="5.2" rx="3.5" ry="3.5"></ellipse>
                            <ellipse id="Oval" fill="#1E4784" cx="3.6" cy="4.2" rx="3.5" ry="3.5"></ellipse>
                            <path d="M3.6,0.7 C5.5,0.7 7.1,2.3 7.1,4.2 C7.1,6.1 5.5,7.7 3.6,7.7" id="Shape" fill="#00233F"></path>
                            <ellipse id="Oval" fill="#1E4784" cx="26.4" cy="4.2" rx="3.5" ry="3.5"></ellipse>
                            <path d="M26.4,0.7 C28.3,0.7 29.9,2.3 29.9,4.2 C29.9,6.1 28.3,7.7 26.4,7.7" id="Shape" fill="#00233F"></path>
                        </g>
                    </g>
                </g>
                <g transform="translate(0.000000, 33.000000)" id="Shape">
                    <g>
                        <path d="M2,1.5 L11,1.5" fill="#FFFFFF"></path>
                        <path d="M11,3 L2,3 C1.2,3 0.5,2.3 0.5,1.5 C0.5,0.7 1.2,0 2,0 L11,0 C11.8,0 12.5,0.7 12.5,1.5 C12.5,2.3 11.8,3 11,3 Z" fill="#756A49"></path>
                    </g>
                    <g transform="translate(51.000000, 0.000000)">
                        <path d="M2,1.5 L11,1.5" fill="#FFFFFF"></path>
                        <path d="M11,3 L2,3 C1.2,3 0.5,2.3 0.5,1.5 C0.5,0.7 1.2,0 2,0 L11,0 C11.8,0 12.5,0.7 12.5,1.5 C12.5,2.3 11.8,3 11,3 Z" fill="#756A49"></path>
                    </g>
                </g>
                <g transform="translate(17.000000, 13.000000)" id="Shape" fill="#109DA0">
                    <path d="M7,3.1 C7,3.7 5.5,3.3 3.8,3.1 C2,2.9 0.6,3.1 0.6,2.5 C0.6,1.9 1.4,0.2 3.2,0.4 C4.9,0.6 7.1,2.5 7,3.1 Z"></path>
                    <path d="M23,3.9 C23,4.5 24.5,4.1 26.2,3.9 C28,3.7 29.4,3.9 29.4,3.3 C29.3,2.7 28.6,1 26.8,1.2 C25.1,1.4 22.9,3.4 23,3.9 Z"></path>
                </g>
            </g>
            <g id="Group" transform="translate(12.000000, 0.000000)">
                <path d="M30.8,6.2 C30.8,6.2 29.4,18.5 7.8,20.6 L8.4,17.6 C8.4,17.6 1.6,21 1.5,25.6 C1.5,25.6 -0.5,12.2 2.8,6.4 C7.2,-1.2 15.5,-1 26.3,2.2 L30.8,6.2 Z" id="Shape" fill="#641E82"></path>
                <path d="M26.3,2.2 L30.8,6.1 C30.8,6.1 29.4,18.4 7.8,20.5 L8.4,17.5 C8.4,17.5 1.6,20.9 1.5,25.5 C1.5,25.5 -0.5,12.1 2.8,6.3" id="Shape" fill="#00233F"></path>
                <path d="M26.8,3.7 C26.8,3.7 30.4,12.2 38.6,18.8 C38.6,18.8 42.3,2.2 29.5,2 L24.7,2.1 L26.8,3.7 Z" id="Shape" fill="#00233F"></path>
                <path d="M29.5,2 L24.7,2.1 L26.8,3.7 C26.8,3.7 30.4,12.2 38.6,18.8" id="Shape" fill="#641E82"></path>
            </g>
            <polygon id="Shape" fill="#FCF492" points="21.2 21.8 17.8 25 20.6 25 16.9 29 24.5 29 28.3 25 25.2 25 28.6 21.6"></polygon>
            <polygon id="Shape" fill="#FCF492" points="12.5 47.1 10.1 52.4 14.3 48.6"></polygon>
            <g id="Group" transform="translate(23.000000, 50.000000)">
                <path d="M16.4,3.6 C16.4,6.2 13.1,11.7 9,11.7 C4.9,11.7 1.6,6.2 1.6,3.6" id="Shape" fill="#F7910B"></path>
                <path d="M9,5.1 C5.5,5.1 2.5,4.3 1.1,2.9 C0.7,2.5 0.7,1.8 1.1,1.3 C1.5,0.8 2.2,0.9 2.7,1.3 C3.7,2.3 6.2,2.9 9,2.9 C11.8,2.9 14.4,2.3 15.3,1.3 C15.7,0.9 16.4,0.9 16.9,1.3 C17.3,1.7 17.3,2.4 16.9,2.9 C15.5,4.3 12.5,5.1 9,5.1 Z" id="Shape" fill="#02243E"></path>
            </g>
        </g>
    </g>
</svg>
